public/assets/imgs/page/homepage5/art-hover.svg

<svg width="27" height="27" viewBox="0 0 27 27" fill="none" xmlns="http://www.w3.org/2000/svg">
<g clip-path="url(#clip0_2_720)">
<path d="M2.89057 7.19972H0.776299V12.4854H0.78687L0.776299 21.9996C0.776299 23.1625 1.72772 24.1139 2.89057 24.1139H21.919V21.9996H2.89057V7.19972ZM24.0333 5.08545H15.5762L13.4619 2.97118H7.11912C5.95627 2.97118 5.01542 3.9226 5.01542 5.08545L5.00485 17.7711C5.00485 18.9339 5.95627 19.8854 7.11912 19.8854H24.0333C25.1962 19.8854 26.1476 18.9339 26.1476 17.7711V7.19972C26.1476 6.03687 25.1962 5.08545 24.0333 5.08545ZM8.17626 16.714L12.9334 10.3711L16.6334 15.1388L19.2762 11.9568L22.9762 16.714H8.17626Z" fill="white"/>
</g>
<defs>
<clipPath id="clip0_2_720">
<rect width="25.3713" height="25.3713" fill="white" transform="translate(0.775909 0.856888)"/>
</clipPath>
</defs>
</svg>

<svg width="27" height="27" fill="none" xmlns="http://www.w3.org/2000/svg"><g clip-path="url(#a)"><path d="M2.89 7.2H.777v5.285h.01L.777 22a2.12 2.12 0 0 0 2.115 2.114h19.028V22H2.891V7.2Zm21.143-2.115h-8.457l-2.114-2.114H7.119a2.111 2.111 0 0 0-2.104 2.114l-.01 12.686a2.12 2.12 0 0 0 2.114 2.114h16.914a2.12 2.12 0 0 0 2.115-2.114V7.2a2.12 2.12 0 0 0-2.115-2.115ZM8.176 16.714l4.757-6.343 3.7 4.768 2.643-3.182 3.7 4.757h-14.8Z" fill="#fff"/></g><defs><clipPath id="a"><path fill="#fff" transform="translate(.776 .857)" d="M0 0h25.371v25.371H0z"/></clipPath></defs></svg>
